X:200
T:Bohemia First Scot Sett No.5. Le4.200
M:6/8
L:1/8
Q:3/8=90
B:L.Leadley MS#4 c1850
Z:Village Music Project 2016 Steve Mansfield
K:A
a | c'ae' bc'b & AAA GGG | a3 e2a & A3 A3 | c'ae' bc'b & AAA GGG | a3 a2e & A3 z3 |
cAe dBf | eag fed | dfe edB | A3 A2 :|
|: G | dcB gfe | e3 gec | Bfe Bdc & B3 A3 | .A.c.[GB] EGB |
dcB gfe | d'c'b bag | aec Bee | e3 A2 :|]

